X: 1771
T: The Onboard Waltz
C:David Hellstrom (1883 - 1965)
B: australian traditional tunes wiki
M:3/4
L:1/8
R: Waltz
Q: 1/4=100
K:D
V:1 
A||"D"[A6f6]|"A7"[A4e4][Af]e|"D"([d6F6]|d3)zFA|[F4d4]Ad|"A7"c2A2[Ac]-[A=c]|"G"([G6B6]|[G4B4])B2|
"A7"e3fe2|"G"d4B2|"A7"[c4e4]d2|c2 (3BcB A2|e4 ef|e2d2e2|"D"[A6f6]|[A4f4]A2||
"D"[A6f6]|"A7"[A4e4][Af]e|"D"[F6d6]|d2d2e2|f3ff2|f2e2f2|"G"([B6g6]|[B4g4])gf|
"G"g2z2B2|"(Em)"B2z2g2|"D"f2z2A2|.A2.d2.f2|"A7"a4a2|g3ec2|"D"d6|d4"FIN"B2||
"D"AA AF Ad|f4 (3efe|"G"d2 d2 B2|"D"A6|"G"B3A Bd|g2g2 (3fgf|"Em"e4d2|B6|
"A7"c3B ce|a2a2 (3faf|"D"d3A df|a2a2 aa|"A7"a2g2 (3ege|"G"B4"A7"c2|"D"d3dd2|d6||
% abcbook-tune_id 6342d53ac64ab43f19067c5e


% abcbook-boost 0
% abcbook-tablature 
% abcbook-transpose 
% abcbook-lastupdated 1665324382808
% abcbook-soundfonts 
% abcbook-repeats 1
% NFF Book 2006

